;FLAVOR:Marlin
;TIME:19156
;Filament used: 13.6969m
;Layer height: 0.2
;MINX:59.632
;MINY:61.5
;MINZ:0.2
;MAXX:160.311
;MAXY:158.5
;MAXZ:64.6
;TARGET_MACHINE.NAME:Creality Ender-3 Pro
;Generated with Cura_SteamEngine 5.6.0
M82 ;absolute extrusion mode
; Ender 3 Custom Start G-code
G92 E0 ; Reset Extruder
G28 ; Home all axes
G1 Z5.0 F3000 ; Move Z Axis up a bit during heating to not damage bed
M104 S175 ; Start heating up the nozzle most of the way
M190 S60 ; Start heating the bed, wait until target temperature reached
M109 S200 ; Finish heating the nozzle
G1 Z2.0 F3000 ; Move Z Axis up little to prevent scratching of Heat Bed
G1 X0.1 Y20 Z0.3 F5000.0 ; Move to start position
G1 X0.1 Y200.0 Z0.3 F1500.0 E15 ; Draw the first line
G1 X0.4 Y200.0 Z0.3 F5000.0 ; Move to side a little
G1 X0.4 Y20 Z0.3 F1500.0 E30 ; Draw the second line
G92 E0 ; Reset Extruder
G1 Z2.0 F3000 ; Move Z Axis up little to prevent scratching of Heat Bed
G1 X5 Y20 Z0.3 F5000.0 ; Move over to prevent blob squish
G92 E0
G92 E0
G1 F1500 E-6.5
;LAYER_COUNT:323
;LAYER:0
M107
G0 F6000 X63.088 Y64.513 Z0.2
;TYPE:SKIRT
G1 F1500 E0
G1 F1200 X63.824 Y63.876 E0.03237
G1 X64.556 Y63.346 E0.06243
G1 X65.453 Y62.811 E0.09717
G1 X66.331 Y62.39 E0.12956
G1 X67.244 Y62.048 E0.16198
G1 X68.181 Y61.789 E0.19432
G1 X69.148 Y61.611 E0.22702
G1 X70.287 Y61.515 E0.26504
G1 X70.944 Y61.5 E0.2869
G1 X148.615 Y61.5 E2.87024
G1 X149.495 Y61.513 E2.89952
G1 X150.467 Y61.572 E2.9319
G1 X151.43 Y61.718 E2.9643
G1 X152.377 Y61.949 E2.99672
G1 X153.265 Y62.249 E3.02789
G1 X154.157 Y62.639 E3.06027
G1 X155.04 Y63.126 E3.09381
G1 X155.791 Y63.628 E3.12386
G1 X156.606 Y64.286 E3.1587
G1 X157.304 Y64.964 E3.19106
G1 X157.94 Y65.701 E3.22344
G1 X158.51 Y66.491 E3.25584
G1 X158.972 Y67.267 E3.28588
G1 X159.426 Y68.209 E3.32066
G1 X159.755 Y69.087 E3.35184
G1 X160.024 Y70.059 E3.38539
G1 X160.201 Y71.025 E3.41805
G1 X160.296 Y72.155 E3.45577
G1 X160.311 Y72.83 E3.47823
G1 X160.31 Y146.9 E5.9418
G1 X160.299 Y147.663 E5.96718
G1 X160.242 Y148.636 E5.9996
G1 X160.097 Y149.599 E6.03199
G1 X159.868 Y150.545 E6.06436
G1 X159.557 Y151.469 E6.09679
G1 X159.165 Y152.36 E6.12917
G1 X158.697 Y153.212 E6.1615
G1 X158.175 Y153.993 E6.19274
G1 X157.542 Y154.778 E6.22628
G1 X156.917 Y155.429 E6.2563
G1 X156.128 Y156.117 E6.29112
G1 X155.368 Y156.667 E6.32232
G1 X154.501 Y157.184 E6.35589
G1 X153.623 Y157.606 E6.38829
G1 X152.712 Y157.948 E6.42066
G1 X151.773 Y158.209 E6.45307
G1 X150.807 Y158.387 E6.48574
G1 X149.656 Y158.485 E6.52417
G1 X148.981 Y158.5 E6.54662
G1 X71.196 Y158.499 E9.13376
G1 X70.463 Y158.488 E9.15814
G1 X69.491 Y158.431 E9.19053
G1 X68.528 Y158.285 E9.22292
G1 X67.582 Y158.056 E9.2553
G1 X66.658 Y157.744 E9.28773
G1 X65.768 Y157.352 E9.32008
G1 X64.945 Y156.901 E9.35129
G1 X64.106 Y156.34 E9.38486
G1 X63.402 Y155.774 E9.41491
G1 X62.649 Y155.049 E9.44967
G1 X62.012 Y154.313 E9.48205
G1 X61.482 Y153.582 E9.51208
G1 X60.946 Y152.685 E9.54683
G1 X60.524 Y151.807 E9.57923
G1 X60.182 Y150.895 E9.61163
G1 X59.922 Y149.957 E9.644
G1 X59.744 Y148.988 E9.67677
G1 X59.646 Y147.809 E9.71612
G1 X59.632 Y147.158 E9.73778
G1 X59.633 Y73.025 E12.20345
G1 X59.644 Y72.325 E12.22674
G1 X59.702 Y71.352 E12.25916
G1 X59.848 Y70.389 E12.29155
G1 X60.078 Y69.443 E12.32393
G1 X60.391 Y68.52 E12.35635
G1 X60.783 Y67.63 E12.38869
G1 X61.253 Y66.777 E12.42109
G1 X61.796 Y65.969 E12.45347
G1 X62.363 Y65.265 E12.48353
G1 X63.088 Y64.513 E12.51827
G0 F6000 X63.35 Y64.815
G1 F1200 X64.059 Y64.2 E12.54949
G1 X64.791 Y63.67 E12.57955
G1 X65.627 Y63.171 E12.61193
G1 X66.472 Y62.764 E12.64313
G1 X67.351 Y62.433 E12.67437
G1 X68.254 Y62.182 E12.70554
G1 X69.182 Y62.01 E12.73693
G1 X70.321 Y61.914 E12.77495
G1 X70.953 Y61.9 E12.79597
G1 X148.609 Y61.9 E15.37882
G1 X149.471 Y61.912 E15.40749
G1 X150.408 Y61.968 E15.43871
G1 X151.336 Y62.107 E15.46992
G1 X152.249 Y62.328 E15.50117
G1 X153.105 Y62.616 E15.53121
G1 X153.997 Y63.006 E15.56359
G1 X154.818 Y63.459 E15.59477
G1 X155.569 Y63.961 E15.62482
G1 X156.328 Y64.573 E15.65725
G1 X157.002 Y65.226 E15.68846
G1 X157.616 Y65.935 E15.71966
G1 X158.166 Y66.696 E15.75088
G1 X158.628 Y67.472 E15.78092
G1 X159.051 Y68.349 E15.81331
G1 X159.38 Y69.227 E15.84449
G1 X159.631 Y70.132 E15.87573
G1 X159.802 Y71.059 E15.90708
G1 X159.897 Y72.189 E15.9448
G1 X159.911 Y72.83 E15.96612
G1 X159.91 Y146.895 E18.42953
G1 X159.9 Y147.64 E18.45432
G1 X159.846 Y148.577 E18.48553
G1 X159.708 Y149.506 E18.51677
G1 X159.489 Y150.418 E18.54797
G1 X159.191 Y151.308 E18.57918
G1 X158.814 Y152.168 E18.61041
G1 X158.364 Y152.99 E18.64158
G1 X157.842 Y153.771 E18.67283
G1 X157.253 Y154.501 E18.70402
G1 X156.628 Y155.152 E18.73404
G1 X155.893 Y155.793 E18.76648
G1 X155.133 Y156.343 E18.79768
G1 X154.327 Y156.824 E18.8289
G1 X153.482 Y157.232 E18.86011
G1 X152.604 Y157.563 E18.89132
G1 X151.7 Y157.816 E18.92254
G1 X150.773 Y157.988 E18.9539
G1 X149.622 Y158.086 E18.99232
G1 X148.981 Y158.1 E19.01364
G1 X71.202 Y158.099 E21.60058
G1 X70.486 Y158.089 E21.6244
G1 X69.55 Y158.035 E21.65558
G1 X68.621 Y157.896 E21.68682
G1 X67.709 Y157.677 E21.71802
G1 X66.819 Y157.378 E21.74925
G1 X65.96 Y157.001 E21.78045
G1 X65.137 Y156.55 E21.81166
G1 X64.357 Y156.028 E21.84288
G1 X63.653 Y155.462 E21.87292
G1 X62.951 Y154.787 E21.90531
G1 X62.336 Y154.078 E21.93653
G1 X61.806 Y153.347 E21.96656
G1 X61.306 Y152.511 E21.99896
G1 X60.898 Y151.666 E22.03017
G1 X60.567 Y150.788 E22.06138
G1 X60.315 Y149.884 E22.09259
G1 X60.143 Y148.955 E22.12402
G1 X60.045 Y147.776 E22.16337
G1 X60.032 Y147.158 E22.18393
G1 X60.033 Y73.031 E24.6494
G1 X60.043 Y72.348 E24.67212
G1 X60.098 Y71.411 E24.70334
G1 X60.237 Y70.483 E24.73455
G1 X60.457 Y69.571 E24.76575
G1 X60.757 Y68.681 E24.79699
G1 X61.134 Y67.822 E24.82819
G1 X61.585 Y67 E24.85937
G1 X62.108 Y66.22 E24.89061
G1 X62.675 Y65.516 E24.92067
G1 X63.35 Y64.815 E24.95304
G0 F6000 X63.613 Y65.117
G1 F1200 X64.294 Y64.524 E24.98307
G1 X65.026 Y63.994 E25.01313
G1 X65.801 Y63.531 E25.04316
G1 X66.614 Y63.138 E25.07319
G1 X67.459 Y62.818 E25.10325
G1 X68.328 Y62.575 E25.13326
G1 X69.216 Y62.409 E25.1633
G1 X70.355 Y62.313 E25.20132
G1 X70.962 Y62.3 E25.22151
G1 X148.604 Y62.3 E27.8039
G1 X149.448 Y62.311 E27.83197
G1 X150.35 Y62.364 E27.86202
G1 X151.243 Y62.496 E27.89205
G1 X152.121 Y62.707 E27.92208
G1 X152.977 Y62.995 E27.95212
G1 X153.804 Y63.357 E27.98215
G1 X154.596 Y63.792 E28.0122
G1 X155.347 Y64.294 E28.04225
G1 X156.05 Y64.861 E28.07229
G1 X156.7 Y65.488 E28.10232
G1 X157.292 Y66.17 E28.13236
G1 X157.822 Y66.901 E28.16239
G1 X158.284 Y67.677 E28.19243
G1 X158.677 Y68.49 E28.22246
G1 X158.995 Y69.335 E28.25249
G1 X159.238 Y70.205 E28.28254
G1 X159.403 Y71.093 E28.31258
G1 X159.498 Y72.223 E28.35029
G1 X159.511 Y72.83 E28.37049
G1 X159.51 Y146.89 E30.83373
G1 X159.501 Y147.617 E30.85791
G1 X159.45 Y148.519 E30.88796
G1 X159.319 Y149.413 E30.91802
G1 X159.11 Y150.291 E30.94803
G1 X158.824 Y151.148 E30.97808
G1 X158.463 Y151.976 E31.00813
G1 X158.031 Y152.768 E31.03813
G1 X157.53 Y153.52 E31.06819
G1 X156.964 Y154.224 E31.09823
G1 X156.339 Y154.875 E31.12825
G1 X155.658 Y155.469 E31.1583
G1 X154.927 Y156 E31.18835
G1 X154.153 Y156.464 E31.21837
G1 X153.34 Y156.858 E31.24842
G1 X152.496 Y157.178 E31.27844
G1 X151.626 Y157.423 E31.3085
G1 X150.739 Y157.589 E31.33851
G1 X149.588 Y157.687 E31.37693
G1 X148.981 Y157.7 E31.39713
G1 X71.207 Y157.699 E33.9839
G1 X70.509 Y157.69 E34.00712
G1 X69.608 Y157.639 E34.03713
G1 X68.714 Y157.507 E34.06719
G1 X67.836 Y157.298 E34.09721
G1 X66.979 Y157.011 E34.12727
G1 X66.152 Y156.65 E34.15728
G1 X65.359 Y156.217 E34.18733
G1 X64.608 Y155.716 E34.21736
G1 X63.904 Y155.15 E34.2474
G1 X63.253 Y154.524 E34.27744
G1 X62.66 Y153.843 E34.30748
G1 X62.13 Y153.112 E34.33751
G1 X61.666 Y152.337 E34.36755
G1 X61.272 Y151.524 E34.3976
G1 X60.952 Y150.68 E34.42762
G1 X60.708 Y149.81 E34.45767
G1 X60.542 Y148.922 E34.48772
G1 X60.445 Y147.767 E34.52627
G1 X60.432 Y147.158 E34.54653
G1 X60.433 Y73.036 E37.01184
G1 X60.442 Y72.371 E37.03396
G1 X60.494 Y71.469 E37.06401
G1 X60.626 Y70.576 E37.09403
G1 X60.836 Y69.698 E37.12406
G1 X61.123 Y68.841 E37.15412
G1 X61.485 Y68.014 E37.18414
G1 X61.918 Y67.222 E37.21417
G1 X62.42 Y66.471 E37.24421
G1 X62.987 Y65.767 E37.27428
G1 X63.613 Y65.117 E37.30429
G1 F1500 E30.80429
;MESH:Phone_Holder-BodyPocket.stl
G0 F6000 X71.052 Y71.835
G0 X148.711 Y146.9
;TYPE:WALL-INNER
G1 F1500 E37.30429
G1 F1200 X148.711 Y73.1 E39.75889
G1 X71.232 Y73.1 E42.33585
G1 X71.232 Y146.9 E44.79045
G1 X148.711 Y146.9 E47.36741
G0 F6000 X149.111 Y147.3
;TYPE:WALL-OUTER
G1 F1200 X149.111 Y72.7 E49.84862
G1 X70.832 Y72.7 E52.45219
G1 X70.832 Y147.3 E54.93339
G1 X149.111 Y147.3 E57.53696
G0 F6000 X148.841 Y147.03
G0 X148.611 Y146.54
G0 X148.351 Y146.54
;TYPE:SKIN
G1 F1200 X71.592 Y146.54 E60.08998
G1 X71.592 Y73.46 E62.52063
G1 X148.351 Y73.46 E65.07364
G1 X148.351 Y146.54 E67.50429
G1 F1500 E61.00429
G0 F6000 X148.611 Y146.54
G0 X148.611 Y74.046
G0 X148.15 Y74.046
G1 F1500 E67.50429
G1 F1200 X147.764 Y73.66 E67.52245
G0 F6000 X147.199 Y73.66
G1 F1200 X148.15 Y74.611 E67.56718
G0 F6000 X148.15 Y75.177
G1 F1200 X146.633 Y73.66 E67.63854
G0 F6000 X146.067 Y73.66
G1 F1200 X148.15 Y75.743 E67.73652
G0 F6000 X148.15 Y76.308
G1 F1200 X145.502 Y73.66 E67.86107
G0 F6000 X144.936 Y73.66
G1 F1200 X148.15 Y76.874 E68.01225
G0 F6000 X148.15 Y77.44
G1 F1200 X144.37 Y73.66 E68.19005
G0 F6000 X143.805 Y73.66
G1 F1200 X148.15 Y78.005 E68.39442
G0 F6000 X148.15 Y78.571
G1 F1200 X143.239 Y73.66 E68.62542
G0 F6000 X142.673 Y73.66
G1 F1200 X148.15 Y79.137 E68.88304
G0 F6000 X148.15 Y79.702
G1 F1200 X142.107 Y73.66 E69.16726
G0 F6000 X141.542 Y73.66
G1 F1200 X148.15 Y80.268 E69.47808
G0 F6000 X148.15 Y80.834
G1 F1200 X140.976 Y73.66 E69.81552
G0 F6000 X140.41 Y73.66
G1 F1200 X148.15 Y81.4 E70.17959
G0 F6000 X148.15 Y81.965
G1 F1200 X139.845 Y73.66 E70.57023
G0 F6000 X139.279 Y73.66
G1 F1200 X148.15 Y82.531 E70.9875
G0 F6000 X148.15 Y83.097
G1 F1200 X138.713 Y73.66 E71.43138
G0 F6000 X138.148 Y73.66
G1 F1200 X148.15 Y83.662 E71.90185
G0 F6000 X148.15 Y84.228
G1 F1200 X137.582 Y73.66 E72.39893
G0 F6000 X137.016 Y73.66
G1 F1200 X148.15 Y84.794 E72.92264
G0 F6000 X148.15 Y85.359
G1 F1200 X136.451 Y73.66 E73.47293
G0 F6000 X135.885 Y73.66
G1 F1200 X148.15 Y85.925 E74.04984
G0 F6000 X148.15 Y86.491
G1 F1200 X135.319 Y73.66 E74.65337
G0 F6000 X134.754 Y73.66
G1 F1200 X148.15 Y87.056 E75.28347
G0 F6000 X148.15 Y87.622
G1 F1200 X134.188 Y73.66 E75.9402
G0 F6000 X133.622 Y73.66
G1 F1200 X148.15 Y88.188 E76.62356
G0 F6000 X148.15 Y88.753
G1 F1200 X133.056 Y73.66 E77.33351
G0 F6000 X132.491 Y73.66
G1 F1200 X148.15 Y89.319 E78.07006
G0 F6000 X148.15 Y89.885
G1 F1200 X131.925 Y73.66 E78.83323
G0 F6000 X131.359 Y73.66
G1 F1200 X148.15 Y90.45 E79.62301
G0 F6000 X148.15 Y91.016
G1 F1200 X130.794 Y73.66 E80.43938
G0 F6000 X130.228 Y73.66
G1 F1200 X148.15 Y91.582 E81.28238
G0 F6000 X148.15 Y92.148
G1 F1200 X129.662 Y73.66 E82.152
G0 F6000 X129.097 Y73.66
G1 F1200 X148.15 Y92.713 E83.04819
G0 F6000 X148.15 Y93.279
G1 F1200 X128.531 Y73.66 E83.97101
G0 F6000 X127.965 Y73.66
G1 F1200 X148.15 Y93.845 E84.92045
G0 F6000 X148.15 Y94.41
G1 F1200 X127.4 Y73.66 E85.89646
G0 F6000 X126.834 Y73.66
G1 F1200 X148.15 Y94.976 E86.8991
G0 F6000 X148.15 Y95.542
G1 F1200 X126.268 Y73.66 E87.92837
G0 F6000 X125.703 Y73.66
G1 F1200 X148.15 Y96.107 E88.9842
G0 F6000 X148.15 Y96.673
G1 F1200 X125.137 Y73.66 E90.06667
G0 F6000 X124.571 Y73.66
G1 F1200 X148.15 Y97.239 E91.17575
G0 F6000 X148.15 Y97.804
G1 F1200 X124.006 Y73.66 E92.31141
G0 F6000 X123.44 Y73.66
G1 F1200 X148.15 Y98.37 E93.47369
G0 F6000 X148.15 Y98.936
G1 F1200 X122.874 Y73.66 E94.6626
G0 F6000 X122.308 Y73.66
G1 F1200 X148.15 Y99.501 E95.8781
G0 F6000 X148.15 Y100.067
G1 F1200 X121.743 Y73.66 E97.12021
G0 F6000 X121.177 Y73.66
G1 F1200 X148.15 Y100.633 E98.38893
G0 F6000 X148.15 Y101.199
G1 F1200 X120.611 Y73.66 E99.68428
G0 F6000 X120.046 Y73.66
G1 F1200 X148.15 Y101.764 E101.00621
G0 F6000 X148.15 Y102.33
G1 F1200 X119.48 Y73.66 E102.35476
G0 F6000 X118.914 Y73.66
G1 F1200 X148.15 Y102.896 E103.72993
G0 F6000 X148.15 Y103.461
G1 F1200 X118.349 Y73.66 E105.13168
G0 F6000 X117.783 Y73.66
G1 F1200 X148.15 Y104.027 E106.56005
G0 F6000 X148.15 Y104.593
G1 F1200 X117.217 Y73.66 E108.01504
G0 F6000 X116.652 Y73.66
G1 F1200 X148.15 Y105.158 E109.49661
G0 F6000 X148.15 Y105.724
G1 F1200 X116.086 Y73.66 E111.0048
G0 F6000 X115.52 Y73.66
G1 F1200 X148.15 Y106.29 E112.53962
G0 F6000 X148.15 Y106.855
G1 F1200 X114.955 Y73.66 E114.10101
G0 F6000 X114.389 Y73.66
G1 F1200 X148.15 Y107.421 E115.68902
G0 F6000 X148.15 Y107.987
G1 F1200 X113.823 Y73.66 E117.30366
G0 F6000 X113.258 Y73.66
G1 F1200 X148.15 Y108.552 E118.94487
G0 F6000 X148.15 Y109.118
G1 F1200 X112.692 Y73.66 E120.61271
G0 F6000 X112.126 Y73.66
G1 F1200 X148.15 Y109.684 E122.30717
G0 F6000 X148.15 Y110.249
G1 F1200 X111.56 Y73.66 E124.02823
G0 F6000 X110.995 Y73.66
G1 F1200 X148.15 Y110.815 E125.77588
G0 F6000 X148.15 Y111.381
G1 F1200 X110.429 Y73.66 E127.55016
G0 F6000 X109.863 Y73.66
G1 F1200 X148.15 Y111.947 E129.35107
G0 F6000 X148.15 Y112.512
G1 F1200 X109.298 Y73.66 E131.17854
G0 F6000 X108.732 Y73.66
G1 F1200 X148.15 Y113.078 E133.03265
G0 F6000 X148.15 Y113.644
G1 F1200 X108.166 Y73.66 E134.91337
G0 F6000 X107.601 Y73.66
G1 F1200 X148.15 Y114.209 E136.82067
G0 F6000 X148.15 Y114.775
G1 F1200 X107.035 Y73.66 E138.7546
G0 F6000 X106.469 Y73.66
G1 F1200 X148.15 Y115.341 E140.71514
G0 F6000 X148.15 Y115.906
G1 F1200 X105.904 Y73.66 E142.70226
G0 F6000 X105.338 Y73.66
G1 F1200 X148.15 Y116.472 E144.71601
G0 F6000 X148.15 Y117.038
G1 F1200 X104.772 Y73.66 E146.75638
G0 F6000 X104.207 Y73.66
G1 F1200 X148.15 Y117.603 E148.82332
G0 F6000 X148.15 Y118.169
G1 F1200 X103.641 Y73.66 E150.91689
G0 F6000 X103.075 Y73.66
G1 F1200 X148.15 Y118.735 E153.03708
G0 F6000 X148.15 Y119.3
G1 F1200 X102.509 Y73.66 E155.18387
G0 F6000 X101.944 Y73.66
G1 F1200 X148.15 Y119.866 E157.35726
G0 F6000 X148.15 Y120.432
G1 F1200 X101.378 Y73.66 E159.55727
G0 F6000 X100.812 Y73.66
G1 F1200 X148.15 Y120.997 E161.78388
G0 F6000 X148.15 Y121.563
G1 F1200 X100.247 Y73.66 E164.03709
G0 F6000 X99.681 Y73.66
G1 F1200 X148.15 Y122.129 E166.31692
G0 F6000 X148.15 Y122.695
G1 F1200 X99.115 Y73.66 E168.62338
G0 F6000 X98.55 Y73.66
G1 F1200 X148.15 Y123.26 E170.95641
G0 F6000 X148.15 Y123.826
G1 F1200 X97.984 Y73.66 E173.31606
G0 F6000 X97.418 Y73.66
G1 F1200 X148.15 Y124.392 E175.70234
G0 F6000 X148.15 Y124.957
G1 F1200 X96.853 Y73.66 E178.1152
G0 F6000 X96.287 Y73.66
G1 F1200 X148.15 Y125.523 E180.55467
G0 F6000 X148.15 Y126.089
G1 F1200 X95.721 Y73.66 E183.02077
G0 F6000 X95.156 Y73.66
G1 F1200 X148.15 Y126.654 E185.51345
G0 F6000 X148.15 Y127.22
G1 F1200 X94.59 Y73.66 E188.03275
G0 F6000 X94.024 Y73.66
G1 F1200 X148.15 Y127.786 E190.57867
G0 F6000 X148.15 Y128.351
G1 F1200 X93.459 Y73.66 E193.15116
G0 F6000 X92.893 Y73.66
G1 F1200 X148.15 Y128.917 E195.75028
G0 F6000 X148.15 Y129.483
G1 F1200 X92.327 Y73.66 E198.37603
G0 F6000 X91.761 Y73.66
G1 F1200 X148.15 Y130.048 E201.02837
G0 F6000 X148.15 Y130.614
G1 F1200 X91.196 Y73.66 E203.70731
G0 F6000 X90.63 Y73.66
G1 F1200 X148.15 Y131.18 E206.41287
G0 F6000 X148.15 Y131.746
G1 F1200 X90.064 Y73.66 E209.14506
G0 F6000 X89.499 Y73.66
G1 F1200 X148.15 Y132.311 E211.90383
G0 F6000 X148.15 Y132.877
G1 F1200 X88.933 Y73.66 E214.68921
G0 F6000 X88.367 Y73.66
G1 F1200 X148.15 Y133.443 E217.50122
G0 F6000 X148.15 Y134.008
G1 F1200 X87.802 Y73.66 E220.33981
G0 F6000 X87.236 Y73.66
G1 F1200 X148.15 Y134.574 E223.20501
G0 F6000 X148.15 Y135.14
